Numix-Light-GalliumOS/22/status/gpm-phone-000.svg

<?xml version="1.0" encoding="UTF-8" standalone="no"?>
<svg
   xmlns:dc="http://purl.org/dc/elements/1.1/"
   xmlns:cc="http://creativecommons.org/ns#"
   xmlns:rdf="http://www.w3.org/1999/02/22-rdf-syntax-ns#"
   xmlns:svg="http://www.w3.org/2000/svg"
   xmlns="http://www.w3.org/2000/svg"
   xmlns:sodipodi="http://sodipodi.sourceforge.net/DTD/sodipodi-0.dtd"
   xmlns:inkscape="http://www.inkscape.org/namespaces/inkscape"
   width="22"
   height="22"
   viewBox="0 0 22 22"
   id="svg2"
   version="1.1"
   inkscape:version="0.91 r"
   sodipodi:docname="gpm-phone-000.svg"
   inkscape:export-filename="/home/andreas/phone.png"
   inkscape:export-xdpi="270"
   inkscape:export-ydpi="270">
  <metadata
     id="metadata10">
    <rdf:RDF>
      <cc:Work
         rdf:about="">
        <dc:format>image/svg+xml</dc:format>
        <dc:type
           rdf:resource="http://purl.org/dc/dcmitype/StillImage" />
        <dc:title />
      </cc:Work>
    </rdf:RDF>
  </metadata>
  <defs
     id="defs8">
    <filter
       height="16"
       width="16"
       y="0"
       x="0"
       filterUnits="objectBoundingBox"
       id="0">
      <feColorMatrix
         id="feColorMatrix7"
         values="0 0 0 0 1 0 0 0 0 1 0 0 0 0 1 0 0 0 1 0"
         in="SourceGraphic"
         type="matrix" />
    </filter>
    <mask
       id="1">
      <g
         style="filter:url(#0)"
         id="g10">
        <rect
           style="fill-opacity:0.30199998"
           y="0"
           x="0"
           id="rect12"
           height="16"
           width="16" />
      </g>
    </mask>
    <clipPath
       id="2">
      <rect
         y="0"
         x="0"
         id="rect15"
         height="16"
         width="16" />
    </clipPath>
    <g
       clip-path="url(#2)"
       id="3">
      <path
         style="fill:none;stroke:#de372c;stroke-width:2;stroke-linecap:round"
         inkscape:connector-curvature="0"
         id="path18"
         transform="matrix(0.727273,0,0,0.727273,-1.090909,-0.727273)"
         d="m 12.5,5.334473 0,3.330078" />
      <path
         style="fill:none;stroke:#de372c;stroke-width:0.5;stroke-linecap:round"
         inkscape:connector-curvature="0"
         id="path20"
         transform="matrix(0,-0.727273,0.727273,0,-1.090909,-0.727273)"
         d="m -16.452637,8.251465 8.905274,0 c 1.267578,0 2.298828,1.477051 2.298828,3.297851 l 0,1.901368 c 0,1.8208 -1.03125,3.297851 -2.298828,3.297851 l -8.905274,0 c -1.267578,0 -2.298828,-1.477051 -2.298828,-3.297851 l 0,-1.901368 c 0,-1.8208 1.03125,-3.297851 2.298828,-3.297851 z" />
    </g>
    <filter
       id="0-8"
       filterUnits="objectBoundingBox"
       x="0"
       y="0"
       width="16"
       height="16">
      <feColorMatrix
         type="matrix"
         in="SourceGraphic"
         values="0 0 0 0 1 0 0 0 0 1 0 0 0 0 1 0 0 0 1 0"
         id="feColorMatrix7-9" />
    </filter>
    <mask
       id="1-7">
      <g
         id="g10-2"
         style="filter:url(#0-8)">
        <rect
           width="16"
           height="16"
           id="rect12-0"
           x="0"
           y="0"
           style="fill-opacity:0.30199998" />
      </g>
    </mask>
    <clipPath
       id="2-2">
      <rect
         width="16"
         height="16"
         id="rect15-7"
         x="0"
         y="0" />
    </clipPath>
    <g
       id="3-4"
       clip-path="url(#2-2)">
      <path
         d="m 12.5,5.334473 0,3.330078"
         transform="matrix(0.727273,0,0,0.727273,-1.090909,-0.727273)"
         id="path18-7"
         inkscape:connector-curvature="0"
         style="fill:none;stroke:#de372c;stroke-width:2;stroke-linecap:round" />
      <path
         d="m -16.452637,8.251465 8.905274,0 c 1.267578,0 2.298828,1.477051 2.298828,3.297851 l 0,1.901368 c 0,1.8208 -1.03125,3.297851 -2.298828,3.297851 l -8.905274,0 c -1.267578,0 -2.298828,-1.477051 -2.298828,-3.297851 l 0,-1.901368 c 0,-1.8208 1.03125,-3.297851 2.298828,-3.297851 z"
         transform="matrix(0,-0.727273,0.727273,0,-1.090909,-0.727273)"
         id="path20-9"
         inkscape:connector-curvature="0"
         style="fill:none;stroke:#de372c;stroke-width:0.5;stroke-linecap:round" />
    </g>
  </defs>
  <sodipodi:namedview
     pagecolor="#ffffff"
     bordercolor="#666666"
     borderopacity="1"
     objecttolerance="10"
     gridtolerance="10"
     guidetolerance="10"
     inkscape:pageopacity="0"
     inkscape:pageshadow="2"
     inkscape:window-width="1920"
     inkscape:window-height="1056"
     id="namedview6"
     showgrid="true"
     inkscape:zoom="20.85965"
     inkscape:cx="3.065664"
     inkscape:cy="4.1281864"
     inkscape:window-x="0"
     inkscape:window-y="24"
     inkscape:window-maximized="1"
     inkscape:current-layer="svg2">
    <inkscape:grid
       type="xygrid"
       id="grid4138" />
  </sodipodi:namedview>
  <rect
     style="opacity:1;fill:#ef555c;fill-opacity:1;fill-rule:nonzero;stroke:none;stroke-width:2;stroke-linecap:butt;stroke-linejoin:miter;stroke-miterlimit:4;stroke-dasharray:none;stroke-dashoffset:0;stroke-opacity:1"
     id="rect4135"
     width="6"
     height="13"
     x="8"
     y="4" />
  <path
     style="fill:#353535;fill-opacity:1"
     d="M 6.75 0 C 5.792969 0 5 0.77343775 5 1.7304688 L 5 20.25 C 5 21.203125 5.792969 22 6.75 22 L 15.25 22 C 16.207031 22 17 21.203125 17 20.25 L 17 1.7304688 C 17 0.77343775 16.207031 -1.4802974e-16 15.25 0 L 6.75 0 z M 10 0.66796875 L 12 0.66796875 C 12.183594 0.66796875 12.332031 0.816406 12.332031 1 C 12.332031 1.183594 12.183594 1.3320312 12 1.3320312 L 10 1.3320312 C 9.816406 1.3320312 9.6679688 1.183594 9.6679688 1 C 9.6679688 0.816406 9.816406 0.66796875 10 0.66796875 z M 6 2 L 16 2 L 16 19 L 6 19 L 6 2 z M 11 19.775391 A 0.75 0.75 0 0 1 11.75 20.525391 A 0.75 0.75 0 0 1 11 21.275391 A 0.75 0.75 0 0 1 10.25 20.525391 A 0.75 0.75 0 0 1 11 19.775391 z "
     id="path4" />
</svg>

<svg xmlns="http://www.w3.org/2000/svg" viewBox="0 0 22 22">
 <rect width="6" height="13" x="8" y="4" style="fill:#ef555c;opacity:1;fill-opacity:1;stroke:none;fill-rule:nonzero"/>
 <path d="m 6.75 0 c -0.957 0 -1.75 0.773 -1.75 1.73 l 0 18.52 c 0 0.953 0.793 1.75 1.75 1.75 l 8.5 0 c 0.957 0 1.75 -0.797 1.75 -1.75 l 0 -18.52 c 0 -0.957 -0.793 -1.73 -1.75 -1.73 l -8.5 0 z m 3.25 0.668 l 2 0 c 0.184 0 0.332 0.148 0.332 0.332 c 0 0.184 -0.148 0.332 -0.332 0.332 l -2 0 c -0.184 0 -0.332 -0.148 -0.332 -0.332 c 0 -0.184 0.148 -0.332 0.332 -0.332 z m -4 1.332 l 10 0 l 0 17 l -10 0 l 0 -17 z m 5 17.775 a 0.75 0.75 0 0 1 0.75 0.75 a 0.75 0.75 0 0 1 -0.75 0.75 a 0.75 0.75 0 0 1 -0.75 -0.75 a 0.75 0.75 0 0 1 0.75 -0.75 z" style="fill:#353535;fill-opacity:1"/>
</svg>
